X:1
T:Confiteor
T:Giovanni Battista Riccio
T:1620
T:Confiteor
T:(C) Wim Looyestijn - 2015
T:(C) Wim Looyestijn - 2015
T:(C) Wim Looyestijn - 2015
T:(C) Wim Looyestijn - 2015
T:(C) Wim Looyestijn - 2015
T:(C) Wim Looyestijn - 2015
C:Giovanni Battista Riccio
Z:(C) Wim Looyestijn - 2015
%%score 1 2
L:1/8
Q:1/4=120
M:none
K:F
V:1 treble-8 nm="MusicXML Part"
V:2 bass nm="MusicXML Part"
V:1
 c4 c4- | c2 c2 c4 | z2 d2 _e4- | e2 d2 d4 | c3 B c3 A | B2 d/e/c/d/ B2 c/B/A/G/ | A4 z ABc | %7
w: Con- fi-|* te- or,|con- fi-|* te- or|De- * * *||o om- ni- po-|
 d4 ccde | f4 f2 e2 | d2 dc B2 A2 | G2 _A2 G3 G | F2 c2 Bcde | f4 d2 ef | d2 dc c3 c | %14
w: ten- ti, om- ni- po-|ten- ti, be-|a- tae Ma- ri- ae|sem- per vir- gi-|ni, be- a- * * *|* to Mi- cha-|e- li Ar- chan- ge-|
 c2 c2 B2 G/A/B/c/ | d2 e/d/e/c/ d3 c | c2 c2 f2 ff | e2 e d ^c d2 c | d2 A2 A2 A2 | =B3 B B4 | %20
w: lo, Ar- chan- * * * *|* * * * * ge- lo,|be- a- to Jo- han-|ni Bap- tis- * * *|tae, san- ctis A-|pos- to- lis|
 c8 | B6 c2 | A2 B/A/G/F/ G3 G | A8 | z4 c4 | f4 e2 d2 | c8 | B8 | =B4 BBAB | c4 c4 | ^c4 cc=Bc | %31
w: Pe-|tro et|Pa- * * * * * u-|lo,|et|om- ni- bus|san-|ctis:|qui- a pec- ca- vi|ni- mis,|qui- a pec- ca- vi|
 d4 d2 dd | d2 c2 c4 | c4 d4- | d4 c4- | c4 B4 |[M:3/1] A12 A4 A8 | =B16 c8 | d16 c8 | f16 _e8 | %40
w: ni- mis co- gi-|ta- ti- o-|ne ver-|* bo|* et|o- pe- re,|me- a|cul- pa,|me- a|
 d16 d8 | c16 _e8 | d8 d4 d4 c8 |[M:4/4] d8 | f6 c2 | c4 d4 | c2 f2 e2 ee | d2 d2 c>B c>A | %48
w: cul- pa,|me- a|ma- xi- ma cul-|pa.|I- de-|o pre-|cor Be- a- tam Ma-|ri- am sem- * * *|
 B>A B>G A2 c/B/A/G/ | FG/A/ B/c/d/e/ f4- | f4 e4 | f4 f4 | e8 | e4 z2 ee | d6 cc | =B2 c4 B2 | %56
w: per * * * * vir- * * *||* gi-|nem, be-|a-|tum Mi- cha-|e- lem Ar-|chan- * ge-|
 c4 z2 c2 | f2 fe d2 dc | B4 A4 | z8 | z8 | c8 | ^c4 c2 c2 | d6 d2 | d8 | _e8 | _e4 d4 | c6 c2 | %68
w: lum, be-|a- tum Jo- han- nem Bap-|tis- tam,|||san-|* ctos A-|pos- to-|los|Pe-|trum et|Pa- u-|
 B8 | c4 c2 c2 | c4 c4 | z2 A2 c4 | B2 B2 d4 | c2 c2 _e2 dc | d4 d4 | f6 e2 | d4 c2 B2 | %77
w: lum,|et om- nes|san- ctos:|o- ra-|re, o- ra-|re, o- ra- re pro|me ad|Do- mi-|num De- um|
 A>G F>G A>B c>d | e/d/e/c/ d/e/f/d/ e f2 e | f4 c4 | d6 A2 | A8 | B4 c4 | d2 c2 dc d/c/d/e/ | %84
w: no- * * * * * * *||strum, ad|Do- mi-|num|De- um|no- * * * * * * *|
 c16 |] %85
w: strum.|
V:2
 F,,4 F,,4- | F,,2 F,,2 F,,4 | z2 B,,2 _E,4- | E,2 B,,2 B,,4 | F,,8 | G,,8 | D,4 z D,B,,A,, | %7
w: |||||||
 B,,4 F,,A,,B,,C, | D,4 D,2 A,,2 | B,,2 B,,A,, G,,2 F,,2 | C,2 B,,2 C,4 | F,,2 F,,2 B,,4 | %12
w: |||* z`7 *||
 F,,4 B,,2 C,A,, | B,,2 B,,F,, C,4 | F,,4 G,,4 | G,,8 | C,2 A,,2 F,,4 | C,2 C,G,, A,,4 | %18
w: ||||||
 D,2 D,2 D,2 D,2 | G,,3 G,, G,,4 | C,4 A,,4 | B,,4 C,4 | C,8 | F,,4 F,,4 | B,,4 A,,2 G,,2 | F,,8- | %26
w: |x * *|||||||
 F,,8 | B,,8 | G,,8 | C,4 C,4 | A,,8 | D,4 D,2 B,,B,, | B,,2 F,,2 C,4 | F,,4 B,,4- | B,,4 F,,4- | %35
w: ||x||x|||||
 F,,4 G,,4 |[M:3/1] D,12 D,4 D,8 | G,,16 F,,8 | B,,16 F,,8 | F,,16 C,8 | G,,16 B,,8 | F,,16 C,8 | %42
w: ||x *||* z||* z|
 B,,8 B,,4 B,,4 F,,8 |[M:4/4] D,8 | F,,6 F,,2 | F,,4 B,,4 | F,,2 F,,2 C,2 C,A,, | B,,4 F,,4 | %48
w: ||||||
 G,,4 F,,4 | B,,4 F,,4 | C,8 | F,,4 F,,4 | C,8 | A,,4 z2 A,,A,, | B,,6 A,,2 | G,,8 | %56
w: |||||x * *||x|
 C,2 C,2 F,2 F,E, | D,2 D,C, B,,3 A,, | G,,4 F,,4 | B,,2 B,,A,, G,,2 F,,2 | C,4 F,,4 | C,8 | %62
w: ||||||
 A,,4 A,,2 A,,2 | D,8 | G,,8 | C,8 | _E,4 B,,4 | F,8 | B,,8 | F,,4 F,,2 F,,2 | F,,4 F,,4 | F,,8 | %72
w: x * *|||z|||||||
 B,,8 | C,8 | G,,8 | D,6 C,2 | B,,4 A,,2 G,,2 | F,,8 | C,8 | F,,4 F,,4 | B,,6 F,,2 | F,,8 | %82
w: |z|||||||||
 B,,4 A,,4 | B,,8 | F,,16 |] %85
w: |||

